images/3233261.svg

<?xml version="1.0" encoding="UTF-8"?>
<svg xmlns="http://www.w3.org/2000/svg" xmlns:xlink="http://www.w3.org/1999/xlink" width="300pt" height="300pt" viewBox="0 0 300 300" version="1.1">
<defs>
<g>
<symbol overflow="visible" id="glyph0-0">
<path style="stroke:none;" d="M 0.546875 1.9375 L 0.546875 -7.75 L 6.046875 -7.75 L 6.046875 1.9375 Z M 1.171875 1.328125 L 5.4375 1.328125 L 5.4375 -7.140625 L 1.171875 -7.140625 Z M 1.171875 1.328125 "/>
</symbol>
<symbol overflow="visible" id="glyph0-1">
<path style="stroke:none;" d="M 1.078125 -8.015625 L 2.546875 -8.015625 L 6.09375 -1.3125 L 6.09375 -8.015625 L 7.15625 -8.015625 L 7.15625 0 L 5.6875 0 L 2.125 -6.703125 L 2.125 0 L 1.078125 0 Z M 1.078125 -8.015625 "/>
</symbol>
<symbol overflow="visible" id="glyph0-2">
<path style="stroke:none;" d="M 1.078125 -8.015625 L 2.171875 -8.015625 L 2.171875 -4.734375 L 6.109375 -4.734375 L 6.109375 -8.015625 L 7.1875 -8.015625 L 7.1875 0 L 6.109375 0 L 6.109375 -3.8125 L 2.171875 -3.8125 L 2.171875 0 L 1.078125 0 Z M 1.078125 -8.015625 "/>
</symbol>
<symbol overflow="visible" id="glyph0-3">
<path style="stroke:none;" d="M 1.078125 -8.015625 L 5.6875 -8.015625 L 5.6875 -7.109375 L 2.171875 -7.109375 L 2.171875 -4.75 L 5.34375 -4.75 L 5.34375 -3.828125 L 2.171875 -3.828125 L 2.171875 0 L 1.078125 0 Z M 1.078125 -8.015625 "/>
</symbol>
</g>
</defs>
<g id="surface29413">
<rect x="0" y="0" width="300" height="300" style="fill:rgb(100%,100%,100%);fill-opacity:1;stroke:none;"/>
<path style="fill:none;stroke-width:1.2;stroke-linecap:butt;stroke-linejoin:miter;stroke:rgb(0%,0%,0%);stroke-opacity:1;stroke-miterlimit:10;" d="M 101.4375 219.035156 L 75.941406 221.832031 "/>
<path style="fill:none;stroke-width:1.2;stroke-linecap:butt;stroke-linejoin:miter;stroke:rgb(0%,0%,0%);stroke-opacity:1;stroke-miterlimit:10;" d="M 98.230469 213.316406 L 77.832031 215.550781 "/>
<path style="fill:none;stroke-width:1.2;stroke-linecap:butt;stroke-linejoin:miter;stroke:rgb(0%,0%,0%);stroke-opacity:1;stroke-miterlimit:10;" d="M 111.765625 195.558594 L 101.4375 219.035156 "/>
<path style="fill:none;stroke-width:1.2;stroke-linecap:butt;stroke-linejoin:miter;stroke:rgb(0%,0%,0%);stroke-opacity:1;stroke-miterlimit:10;" d="M 75.941406 221.832031 L 60.773438 201.144531 "/>
<path style="fill:none;stroke-width:1.2;stroke-linecap:butt;stroke-linejoin:miter;stroke:rgb(0%,0%,0%);stroke-opacity:1;stroke-miterlimit:10;" d="M 60.773438 201.144531 L 71.101562 177.667969 "/>
<path style="fill:none;stroke-width:1.2;stroke-linecap:butt;stroke-linejoin:miter;stroke:rgb(0%,0%,0%);stroke-opacity:1;stroke-miterlimit:10;" d="M 67.328125 201.226562 L 75.59375 182.445312 "/>
<path style="fill:none;stroke-width:1.2;stroke-linecap:butt;stroke-linejoin:miter;stroke:rgb(0%,0%,0%);stroke-opacity:1;stroke-miterlimit:10;" d="M 71.101562 177.667969 L 96.597656 174.875 "/>
<path style="fill:none;stroke-width:1.2;stroke-linecap:butt;stroke-linejoin:miter;stroke:rgb(0%,0%,0%);stroke-opacity:1;stroke-miterlimit:10;" d="M 71.101562 177.667969 L 55.933594 156.984375 "/>
<path style="fill:none;stroke-width:1.2;stroke-linecap:butt;stroke-linejoin:miter;stroke:rgb(0%,0%,0%);stroke-opacity:1;stroke-miterlimit:10;" d="M 96.597656 174.875 L 111.765625 195.558594 "/>
<path style="fill:none;stroke-width:1.2;stroke-linecap:butt;stroke-linejoin:miter;stroke:rgb(0%,0%,0%);stroke-opacity:1;stroke-miterlimit:10;" d="M 93.25 180.511719 L 105.382812 197.058594 "/>
<path style="fill:none;stroke-width:1.2;stroke-linecap:butt;stroke-linejoin:miter;stroke:rgb(0%,0%,0%);stroke-opacity:1;stroke-miterlimit:10;" d="M 96.597656 174.875 L 106.929688 151.398438 "/>
<path style="fill:none;stroke-width:1.2;stroke-linecap:butt;stroke-linejoin:miter;stroke:rgb(0%,0%,0%);stroke-opacity:1;stroke-miterlimit:10;" d="M 106.929688 151.398438 L 132.425781 148.601562 "/>
<path style="fill:none;stroke-width:1.2;stroke-linecap:butt;stroke-linejoin:miter;stroke:rgb(0%,0%,0%);stroke-opacity:1;stroke-miterlimit:10;" d="M 108.820312 145.117188 L 129.21875 142.882812 "/>
<path style="fill:none;stroke-width:1.2;stroke-linecap:butt;stroke-linejoin:miter;stroke:rgb(0%,0%,0%);stroke-opacity:1;stroke-miterlimit:10;" d="M 91.761719 130.710938 L 106.929688 151.398438 "/>
<path style="fill:none;stroke-width:1.2;stroke-linecap:butt;stroke-linejoin:miter;stroke:rgb(0%,0%,0%);stroke-opacity:1;stroke-miterlimit:10;" d="M 132.425781 148.601562 L 142.753906 125.125 "/>
<path style="fill:none;stroke-width:1.2;stroke-linecap:butt;stroke-linejoin:miter;stroke:rgb(0%,0%,0%);stroke-opacity:1;stroke-miterlimit:10;" d="M 142.753906 125.125 L 127.589844 104.441406 "/>
<path style="fill:none;stroke-width:1.2;stroke-linecap:butt;stroke-linejoin:miter;stroke:rgb(0%,0%,0%);stroke-opacity:1;stroke-miterlimit:10;" d="M 146.105469 119.488281 L 133.972656 102.941406 "/>
<path style="fill:none;stroke-width:1.2;stroke-linecap:butt;stroke-linejoin:miter;stroke:rgb(0%,0%,0%);stroke-opacity:1;stroke-miterlimit:10;" d="M 168.253906 122.332031 L 142.753906 125.125 "/>
<path style="fill:none;stroke-width:1.2;stroke-linecap:butt;stroke-linejoin:miter;stroke:rgb(0%,0%,0%);stroke-opacity:1;stroke-miterlimit:10;" d="M 127.589844 104.441406 L 102.089844 107.234375 "/>
<path style="fill:none;stroke-width:1.2;stroke-linecap:butt;stroke-linejoin:miter;stroke:rgb(0%,0%,0%);stroke-opacity:1;stroke-miterlimit:10;" d="M 127.589844 104.441406 L 132.753906 92.703125 "/>
<path style="fill:none;stroke-width:1.2;stroke-linecap:butt;stroke-linejoin:miter;stroke:rgb(0%,0%,100%);stroke-opacity:1;stroke-miterlimit:10;" d="M 132.753906 92.703125 L 137.917969 80.964844 "/>
<path style="fill:none;stroke-width:1.2;stroke-linecap:butt;stroke-linejoin:miter;stroke:rgb(0%,0%,0%);stroke-opacity:1;stroke-miterlimit:10;" d="M 102.089844 107.234375 L 91.761719 130.710938 "/>
<path style="fill:none;stroke-width:1.2;stroke-linecap:butt;stroke-linejoin:miter;stroke:rgb(0%,0%,0%);stroke-opacity:1;stroke-miterlimit:10;" d="M 106.582031 112.011719 L 98.320312 130.792969 "/>
<path style="fill:none;stroke-width:1.2;stroke-linecap:butt;stroke-linejoin:miter;stroke:rgb(0%,0%,100%);stroke-opacity:1;stroke-miterlimit:10;" d="M 137.917969 80.964844 L 150.667969 79.566406 "/>
<path style="fill:none;stroke-width:1.2;stroke-linecap:butt;stroke-linejoin:miter;stroke:rgb(0%,0%,0%);stroke-opacity:1;stroke-miterlimit:10;" d="M 150.667969 79.566406 L 163.414062 78.167969 "/>
<path style="fill:none;stroke-width:1.2;stroke-linecap:butt;stroke-linejoin:miter;stroke:rgb(0%,0%,100%);stroke-opacity:1;stroke-miterlimit:10;" d="M 141.125 86.683594 L 151.324219 85.566406 "/>
<path style="fill:none;stroke-width:1.2;stroke-linecap:butt;stroke-linejoin:miter;stroke:rgb(0%,0%,0%);stroke-opacity:1;stroke-miterlimit:10;" d="M 151.324219 85.566406 L 161.523438 84.449219 "/>
<path style=" stroke:none;fill-rule:nonzero;fill:rgb(100%,100%,100%);fill-opacity:1;" d="M 133.917969 74.464844 L 141.917969 74.464844 L 141.917969 87.464844 L 133.917969 87.464844 Z M 133.917969 74.464844 "/>
<g style="fill:rgb(0%,0%,100%);fill-opacity:1;">
  <use xlink:href="#glyph0-1" x="133.917969" y="84.366211"/>
</g>
<path style="fill:none;stroke-width:1.2;stroke-linecap:butt;stroke-linejoin:miter;stroke:rgb(0%,0%,0%);stroke-opacity:1;stroke-miterlimit:10;" d="M 163.414062 78.167969 L 171 88.511719 "/>
<path style="fill:none;stroke-width:1.2;stroke-linecap:butt;stroke-linejoin:miter;stroke:rgb(0%,0%,100%);stroke-opacity:1;stroke-miterlimit:10;" d="M 171 88.511719 L 178.582031 98.855469 "/>
<path style="fill:none;stroke-width:1.2;stroke-linecap:butt;stroke-linejoin:miter;stroke:rgb(0%,0%,100%);stroke-opacity:1;stroke-miterlimit:10;" d="M 178.582031 98.855469 L 173.417969 110.59375 "/>
<path style="fill:none;stroke-width:1.2;stroke-linecap:butt;stroke-linejoin:miter;stroke:rgb(0%,0%,0%);stroke-opacity:1;stroke-miterlimit:10;" d="M 173.417969 110.59375 L 168.253906 122.332031 "/>
<path style="fill:none;stroke-width:1.2;stroke-linecap:butt;stroke-linejoin:miter;stroke:rgb(0%,0%,100%);stroke-opacity:1;stroke-miterlimit:10;" d="M 172.023438 98.773438 L 167.894531 108.164062 "/>
<path style="fill:none;stroke-width:1.2;stroke-linecap:butt;stroke-linejoin:miter;stroke:rgb(0%,0%,0%);stroke-opacity:1;stroke-miterlimit:10;" d="M 167.894531 108.164062 L 163.761719 117.554688 "/>
<path style=" stroke:none;fill-rule:nonzero;fill:rgb(100%,100%,100%);fill-opacity:1;" d="M 174.582031 92.355469 L 182.582031 92.355469 L 182.582031 105.355469 L 174.582031 105.355469 Z M 174.582031 92.355469 "/>
<g style="fill:rgb(0%,0%,100%);fill-opacity:1;">
  <use xlink:href="#glyph0-1" x="174.582031" y="102.256836"/>
</g>
<path style="fill:none;stroke-width:1.2;stroke-linecap:butt;stroke-linejoin:miter;stroke:rgb(0%,0%,0%);stroke-opacity:1;stroke-miterlimit:10;" d="M 168.253906 122.332031 L 175.835938 132.675781 "/>
<path style="fill:none;stroke-width:1.2;stroke-linecap:butt;stroke-linejoin:miter;stroke:rgb(0%,0%,100%);stroke-opacity:1;stroke-miterlimit:10;" d="M 175.835938 132.675781 L 183.421875 143.015625 "/>
<path style="fill:none;stroke-width:1.2;stroke-linecap:butt;stroke-linejoin:miter;stroke:rgb(0%,0%,100%);stroke-opacity:1;stroke-miterlimit:10;" d="M 183.421875 143.015625 L 196.167969 141.621094 "/>
<path style="fill:none;stroke-width:1.2;stroke-linecap:butt;stroke-linejoin:miter;stroke:rgb(0%,0%,0%);stroke-opacity:1;stroke-miterlimit:10;" d="M 196.167969 141.621094 L 208.917969 140.222656 "/>
<path style=" stroke:none;fill-rule:nonzero;fill:rgb(100%,100%,100%);fill-opacity:1;" d="M 175.421875 136.515625 L 192.421875 136.515625 L 192.421875 149.515625 L 175.421875 149.515625 Z M 175.421875 136.515625 "/>
<g style="fill:rgb(0%,0%,100%);fill-opacity:1;">
  <use xlink:href="#glyph0-1" x="175.421875" y="146.416992"/>
  <use xlink:href="#glyph0-2" x="183.405273" y="146.416992"/>
</g>
<path style="fill:none;stroke-width:1.2;stroke-linecap:butt;stroke-linejoin:miter;stroke:rgb(0%,0%,0%);stroke-opacity:1;stroke-miterlimit:10;" d="M 208.917969 140.222656 L 224.085938 160.90625 "/>
<path style="fill:none;stroke-width:1.2;stroke-linecap:butt;stroke-linejoin:miter;stroke:rgb(0%,0%,0%);stroke-opacity:1;stroke-miterlimit:10;" d="M 224.085938 160.90625 L 213.753906 184.386719 "/>
<path style="fill:none;stroke-width:1.2;stroke-linecap:butt;stroke-linejoin:miter;stroke:rgb(0%,0%,0%);stroke-opacity:1;stroke-miterlimit:10;" d="M 228.578125 165.6875 L 220.3125 184.46875 "/>
<path style="fill:none;stroke-width:1.2;stroke-linecap:butt;stroke-linejoin:miter;stroke:rgb(0%,0%,0%);stroke-opacity:1;stroke-miterlimit:10;" d="M 249.582031 158.113281 L 224.085938 160.90625 "/>
<path style="fill:none;stroke-width:1.2;stroke-linecap:butt;stroke-linejoin:miter;stroke:rgb(0%,0%,0%);stroke-opacity:1;stroke-miterlimit:10;" d="M 213.753906 184.386719 L 221.339844 194.726562 "/>
<path style="fill:none;stroke-width:1.2;stroke-linecap:butt;stroke-linejoin:miter;stroke:rgb(0%,0%,100%);stroke-opacity:1;stroke-miterlimit:10;" d="M 221.339844 194.726562 L 228.921875 205.070312 "/>
<path style="fill:none;stroke-width:1.2;stroke-linecap:butt;stroke-linejoin:miter;stroke:rgb(0%,0%,100%);stroke-opacity:1;stroke-miterlimit:10;" d="M 228.921875 205.070312 L 241.671875 203.675781 "/>
<path style="fill:none;stroke-width:1.2;stroke-linecap:butt;stroke-linejoin:miter;stroke:rgb(0%,0%,0%);stroke-opacity:1;stroke-miterlimit:10;" d="M 241.671875 203.675781 L 254.421875 202.277344 "/>
<path style="fill:none;stroke-width:1.2;stroke-linecap:butt;stroke-linejoin:miter;stroke:rgb(0%,0%,100%);stroke-opacity:1;stroke-miterlimit:10;" d="M 230.816406 198.792969 L 241.015625 197.675781 "/>
<path style="fill:none;stroke-width:1.2;stroke-linecap:butt;stroke-linejoin:miter;stroke:rgb(0%,0%,0%);stroke-opacity:1;stroke-miterlimit:10;" d="M 241.015625 197.675781 L 251.214844 196.558594 "/>
<path style=" stroke:none;fill-rule:nonzero;fill:rgb(100%,100%,100%);fill-opacity:1;" d="M 224.921875 198.570312 L 232.921875 198.570312 L 232.921875 211.570312 L 224.921875 211.570312 Z M 224.921875 198.570312 "/>
<g style="fill:rgb(0%,0%,100%);fill-opacity:1;">
  <use xlink:href="#glyph0-1" x="224.921875" y="208.47168"/>
</g>
<path style="fill:none;stroke-width:1.2;stroke-linecap:butt;stroke-linejoin:miter;stroke:rgb(0%,0%,0%);stroke-opacity:1;stroke-miterlimit:10;" d="M 254.421875 202.277344 L 264.75 178.800781 "/>
<path style="fill:none;stroke-width:1.2;stroke-linecap:butt;stroke-linejoin:miter;stroke:rgb(0%,0%,0%);stroke-opacity:1;stroke-miterlimit:10;" d="M 264.75 178.800781 L 249.582031 158.113281 "/>
<path style="fill:none;stroke-width:1.2;stroke-linecap:butt;stroke-linejoin:miter;stroke:rgb(0%,0%,0%);stroke-opacity:1;stroke-miterlimit:10;" d="M 258.367188 180.300781 L 246.230469 163.753906 "/>
<path style="fill:none;stroke-width:1.2;stroke-linecap:butt;stroke-linejoin:miter;stroke:rgb(0%,0%,0%);stroke-opacity:1;stroke-miterlimit:10;" d="M 55.933594 156.984375 L 48.351562 146.640625 "/>
<path style="fill:none;stroke-width:1.2;stroke-linecap:butt;stroke-linejoin:miter;stroke:rgb(20%,80%,80%);stroke-opacity:1;stroke-miterlimit:10;" d="M 48.351562 146.640625 L 40.765625 136.296875 "/>
<path style="fill:none;stroke-width:1.2;stroke-linecap:butt;stroke-linejoin:miter;stroke:rgb(0%,0%,0%);stroke-opacity:1;stroke-miterlimit:10;" d="M 55.933594 156.984375 L 45.59375 164.566406 "/>
<path style="fill:none;stroke-width:1.2;stroke-linecap:butt;stroke-linejoin:miter;stroke:rgb(20%,80%,80%);stroke-opacity:1;stroke-miterlimit:10;" d="M 45.59375 164.566406 L 35.25 172.152344 "/>
<path style="fill:none;stroke-width:1.2;stroke-linecap:butt;stroke-linejoin:miter;stroke:rgb(0%,0%,0%);stroke-opacity:1;stroke-miterlimit:10;" d="M 55.933594 156.984375 L 66.277344 149.398438 "/>
<path style="fill:none;stroke-width:1.2;stroke-linecap:butt;stroke-linejoin:miter;stroke:rgb(20%,80%,80%);stroke-opacity:1;stroke-miterlimit:10;" d="M 66.277344 149.398438 L 76.617188 141.816406 "/>
<path style=" stroke:none;fill-rule:nonzero;fill:rgb(100%,100%,100%);fill-opacity:1;" d="M 33.765625 129.796875 L 40.765625 129.796875 L 40.765625 142.796875 L 33.765625 142.796875 Z M 33.765625 129.796875 "/>
<g style="fill:rgb(20%,80%,80%);fill-opacity:1;">
  <use xlink:href="#glyph0-3" x="33.765625" y="139.698242"/>
</g>
<path style=" stroke:none;fill-rule:nonzero;fill:rgb(100%,100%,100%);fill-opacity:1;" d="M 28.25 165.652344 L 35.25 165.652344 L 35.25 178.652344 L 28.25 178.652344 Z M 28.25 165.652344 "/>
<g style="fill:rgb(20%,80%,80%);fill-opacity:1;">
  <use xlink:href="#glyph0-3" x="28.25" y="175.553711"/>
</g>
<path style=" stroke:none;fill-rule:nonzero;fill:rgb(100%,100%,100%);fill-opacity:1;" d="M 73.617188 135.316406 L 80.617188 135.316406 L 80.617188 148.316406 L 73.617188 148.316406 Z M 73.617188 135.316406 "/>
<g style="fill:rgb(20%,80%,80%);fill-opacity:1;">
  <use xlink:href="#glyph0-3" x="73.617188" y="145.217773"/>
</g>
</g>
</svg>

<svg xmlns="http://www.w3.org/2000/svg" xmlns:xlink="http://www.w3.org/1999/xlink" width="300pt" height="300pt" viewBox="0 0 300 300"><defs><symbol overflow="visible"><path d="M.547 1.938V-7.75h5.5v9.688zm.625-.61h4.266v-8.47H1.171zm0 0"/></symbol><symbol overflow="visible" id="a"><path d="M1.078-8.016h1.47l3.546 6.704v-6.704h1.062V0H5.688L2.124-6.703V0H1.078zm0 0"/></symbol><symbol overflow="visible" id="b"><path d="M1.078-8.016h1.094v3.282H6.11v-3.282h1.077V0H6.11v-3.813H2.17V0H1.078zm0 0"/></symbol><symbol overflow="visible" id="c"><path d="M1.078-8.016h4.61v.907H2.171v2.36h3.172v.922H2.172V0H1.078zm0 0"/></symbol></defs><g><path fill="#fff" d="M0 0h300v300H0z"/><path d="M101.438 219.035l-25.497 2.797M98.23 213.316l-20.398 2.235M111.766 195.56l-10.33 23.475M75.94 221.832l-15.167-20.687M60.773 201.145l10.33-23.477M67.328 201.227l8.266-18.782M71.102 177.668l25.496-2.793M71.102 177.668l-15.168-20.684M96.598 174.875l15.168 20.684M93.25 180.512l12.133 16.547M96.598 174.875l10.332-23.477M106.93 151.398l25.496-2.796M108.82 145.117l20.4-2.234M91.762 130.71L106.93 151.4M132.426 148.602l10.328-23.477M142.754 125.125L127.59 104.44M146.105 119.488l-12.132-16.547M168.254 122.332l-25.5 2.793M127.59 104.44l-25.5 2.794M127.59 104.44l5.164-11.737" stroke-width="1.2" stroke="#000" stroke-miterlimit="10" fill="none"/><path d="M132.754 92.703l5.164-11.738" stroke-width="1.2" stroke="#00f" stroke-miterlimit="10" fill="none"/><path d="M102.09 107.234L91.762 130.71M106.582 112.012l-8.262 18.78" stroke-width="1.2" stroke="#000" stroke-miterlimit="10" fill="none"/><path d="M137.918 80.965l12.75-1.4" stroke-width="1.2" stroke="#00f" stroke-miterlimit="10" fill="none"/><path d="M150.668 79.566l12.746-1.398" stroke-width="1.2" stroke="#000" stroke-miterlimit="10" fill="none"/><path d="M141.125 86.684l10.2-1.118" stroke-width="1.2" stroke="#00f" stroke-miterlimit="10" fill="none"/><path d="M151.324 85.566l10.2-1.117" stroke-width="1.2" stroke="#000" stroke-miterlimit="10" fill="none"/><path d="M133.918 74.465h8v13h-8zm0 0" fill="#fff"/><use xlink:href="#a" x="133.918" y="84.366" fill="#00f"/><path d="M163.414 78.168L171 88.512" stroke-width="1.2" stroke="#000" stroke-miterlimit="10" fill="none"/><path d="M171 88.512l7.582 10.343M178.582 98.855l-5.164 11.74" stroke-width="1.2" stroke="#00f" stroke-miterlimit="10" fill="none"/><path d="M173.418 110.594l-5.164 11.738" stroke-width="1.2" stroke="#000" stroke-miterlimit="10" fill="none"/><path d="M172.023 98.773l-4.128 9.39" stroke-width="1.2" stroke="#00f" stroke-miterlimit="10" fill="none"/><path d="M167.895 108.164l-4.133 9.39" stroke-width="1.2" stroke="#000" stroke-miterlimit="10" fill="none"/><path d="M174.582 92.355h8v13h-8zm0 0" fill="#fff"/><use xlink:href="#a" x="174.582" y="102.257" fill="#00f"/><path d="M168.254 122.332l7.582 10.344" stroke-width="1.2" stroke="#000" stroke-miterlimit="10" fill="none"/><path d="M175.836 132.676l7.586 10.34M183.422 143.016l12.746-1.395" stroke-width="1.2" stroke="#00f" stroke-miterlimit="10" fill="none"/><path d="M196.168 141.62l12.75-1.397" stroke-width="1.2" stroke="#000" stroke-miterlimit="10" fill="none"/><path d="M175.422 136.516h17v13h-17zm0 0" fill="#fff"/><g fill="#00f"><use xlink:href="#a" x="175.422" y="146.417"/><use xlink:href="#b" x="183.405" y="146.417"/></g><path d="M208.918 140.223l15.168 20.683M224.086 160.906l-10.332 23.48M228.578 165.688l-8.266 18.78M249.582 158.113l-25.496 2.793M213.754 184.387l7.586 10.34" stroke-width="1.2" stroke="#000" stroke-miterlimit="10" fill="none"/><path d="M221.34 194.727l7.582 10.343M228.922 205.07l12.75-1.394" stroke-width="1.2" stroke="#00f" stroke-miterlimit="10" fill="none"/><path d="M241.672 203.676l12.75-1.4" stroke-width="1.2" stroke="#000" stroke-miterlimit="10" fill="none"/><path d="M230.816 198.793l10.2-1.117" stroke-width="1.2" stroke="#00f" stroke-miterlimit="10" fill="none"/><path d="M241.016 197.676l10.2-1.117" stroke-width="1.2" stroke="#000" stroke-miterlimit="10" fill="none"/><path d="M224.922 198.57h8v13h-8zm0 0" fill="#fff"/><use xlink:href="#a" x="224.922" y="208.472" fill="#00f"/><path d="M254.422 202.277L264.75 178.8M264.75 178.8l-15.168-20.687M258.367 180.3l-12.137-16.546M55.934 156.984l-7.582-10.343" stroke-width="1.2" stroke="#000" stroke-miterlimit="10" fill="none"/><path d="M48.352 146.64l-7.586-10.343" stroke-width="1.2" stroke="#3cc" stroke-miterlimit="10" fill="none"/><path d="M55.934 156.984l-10.34 7.582" stroke-width="1.2" stroke="#000" stroke-miterlimit="10" fill="none"/><path d="M45.594 164.566l-10.344 7.586" stroke-width="1.2" stroke="#3cc" stroke-miterlimit="10" fill="none"/><path d="M55.934 156.984l10.343-7.586" stroke-width="1.2" stroke="#000" stroke-miterlimit="10" fill="none"/><path d="M66.277 149.398l10.34-7.582" stroke-width="1.2" stroke="#3cc" stroke-miterlimit="10" fill="none"/><path d="M33.766 129.797h7v13h-7zm0 0" fill="#fff"/><use xlink:href="#c" x="33.766" y="139.698" fill="#3cc"/><path d="M28.25 165.652h7v13h-7zm0 0" fill="#fff"/><use xlink:href="#c" x="28.25" y="175.554" fill="#3cc"/><path d="M73.617 135.316h7v13h-7zm0 0" fill="#fff"/><use xlink:href="#c" x="73.617" y="145.218" fill="#3cc"/></g></svg>
